img/services/mail-icon.svg

<svg width="76" height="76" viewBox="0 0 76 76" fill="none" xmlns="http://www.w3.org/2000/svg">
<path opacity="0.06" d="M54.9787 0H21.0213C9.41155 0 0 9.41155 0 21.0213V54.9787C0 66.5885 9.41155 76 21.0213 76H54.9787C66.5885 76 76 66.5885 76 54.9787V21.0213C76 9.41155 66.5885 0 54.9787 0Z" fill="#F6CA4F"/>
<path d="M38.0001 63.8788C52.2925 63.8788 63.8788 52.2925 63.8788 38.0001C63.8788 23.7076 52.2925 12.1213 38.0001 12.1213C23.7076 12.1213 12.1213 23.7076 12.1213 38.0001C12.1213 52.2925 23.7076 63.8788 38.0001 63.8788Z" fill="#FF6D35"/>
<path d="M47.5505 49.6729H28.4495C26.1149 49.6729 24.2048 47.7628 24.2048 45.4282V30.5718C24.2048 28.2373 26.1149 26.3271 28.4495 26.3271H47.5505C49.8851 26.3271 51.7952 28.2373 51.7952 30.5718V45.4282C51.7952 47.7628 49.8851 49.6729 47.5505 49.6729Z" stroke="white" stroke-width="2" stroke-miterlimit="10" stroke-linecap="round" stroke-linejoin="round"/>
<path d="M24.2048 31.6329L38 40.1223L51.7952 31.6329" stroke="white" stroke-width="2" stroke-miterlimit="10" stroke-linecap="round" stroke-linejoin="round"/>
</svg>

<svg xmlns="http://www.w3.org/2000/svg" width="76" height="76" fill="none"><path fill="#F6CA4F" d="M54.979 0H21.02C9.411 0 0 9.412 0 21.021V54.98C0 66.589 9.412 76 21.021 76H54.98C66.589 76 76 66.588 76 54.979V21.02C76 9.411 66.588 0 54.979 0Z" opacity=".06"/><path fill="#FF6D35" d="M38 63.879C52.292 63.879 63.88 52.292 63.88 38c0-14.292-11.587-25.879-25.879-25.879-14.292 0-25.879 11.587-25.879 25.88 0 14.291 11.587 25.878 25.88 25.878Z"/><path stroke="#fff" stroke-linecap="round" stroke-linejoin="round" stroke-miterlimit="10" stroke-width="2" d="M47.55 49.673h-19.1a4.257 4.257 0 0 1-4.245-4.245V30.572a4.257 4.257 0 0 1 4.245-4.245h19.1a4.257 4.257 0 0 1 4.245 4.245v14.856a4.257 4.257 0 0 1-4.245 4.245Z"/><path stroke="#fff" stroke-linecap="round" stroke-linejoin="round" stroke-miterlimit="10" stroke-width="2" d="M24.205 31.633 38 40.123l13.795-8.49"/></svg>
